X:87
T:Edmonton Assembly. JJo8.087
%%VWML:JohnsonVol8-2184-p44-0
F:http://www.vwml.org/record/JohnsonVol8/2184/p44
Z:Transcribed by Simon Furey and Lewis Jones
Z:vmp.Simon Wilson 2013 www.village-music-project.org.uk
Z:Dance added by John Chambers 2017
M:C|
L:1/8
%Q:1/2=80
K:G
G |\
E/E/E EG DEGA | BGAB AGED |\
E/E/E EG DEGA | BGABG3 :|\
G |\
(B/c/d) df dega | bgab aged |
(B/c/d) df dega | bgab"^tr"g3a |\
(b/a/g) (a/g/f) dbba | gedB AGED |\
E/E/E EG DEGA | BGABG3 :|
W: Cast off two Cu. .| up again :|
W:Cross over two Cu. :||. Lead up to the
W:Top and cast off :||: Hands 4 round
W:with the 3d Cu. .:||: Right hands and
W:Left with the 2d Cu. .:||:.
W:
T:City Mell. JJo8.088, The
B:J.Johnson Choice Collection Vol 8 1758
Z:vmp.Simon Wilson 2013 www.village-music-project.org.uk
Z:Dance added by John Chambers 2017
M:C|
L:1/8
%Q:1/2=80
K:A
fg |\
aedc df2c | dcBA GB2E |\
ABcA dBec | fdecB2 :|
|: ed |\
cA fe ^dB gf | e2fga2gf |\
egaf ecAc | dBAG | A2 :|
W: Foot it to the 2d Wo. and turn 3
W:.| the same with the 2d Man :|.
W:Cross over two Cu :|. Lead up to
W:the top and foot it :||. foot it
W:and Right hands and Left half
W:round with the 3d Cu. .| the same
W:back again :| Cross over and
W:turn :|. Right hands and Left
W:quite round :||:
W:
